icon-themes/breeze_svg/cmd/sc_renamepage.svg

<svg viewBox="0 0 16 16" xmlns="http://www.w3.org/2000/svg"><path d="m3 2v12h7v-1h-6v-10h5v3h3v1h1v-2l-3-3z" fill="#4d4d4d"/><path d="m11 8v1h1v4h-1v1h3v-1h-1v-4h1v-1z" fill="#1d99f3"/></svg>

<svg xmlns="http://www.w3.org/2000/svg" viewBox="0 0 16 16">
  <path
     style="fill:#4d4d4d"
     d="M 3 2 L 3 14 L 10 14 L 10 13 L 4 13 L 4 3 L 9 3 L 9 6 L 12 6 L 12 7 L 13 7 L 13 5 L 10 2 L 3 2 z "
     />
  <path
     style="fill:#1d99f3"
     d="M 11 8 L 11 9 L 12 9 L 12 13 L 11 13 L 11 14 L 14 14 L 14 13 L 13 13 L 13 9 L 14 9 L 14 8 L 11 8 z "
     />
</svg>
